!!!ONB: MCCC : IJH0430_03 : Extracted Monophonic Melody
!!!COM: Haydn, Joseph
!!!OPR: String Quartet in D major
!!!OMV: 3
!!!SCT: Hob.III:49 ; Op.50 No.6
!!!ODT: 1787///
**kern
*thru
*k[f#c#]
*D:
*clefG
*M3/4
8.aa
16aa
=1
2aa
4ddd
=2
4ddd
16ccc#
8.bb
16aa#
8.bb
=3
32aa
16.gg
8r
32ff#
16.ee
8r
32dd
16.cc#
8r
=4
32b
16.a
8r
32g
16.f#
8r
32e
16.d
8r
=5
2.c
=6
4B
32d#
16.e
8r
32f#
16.g
8r
=7
32a#
16.b
4.r
8.c#
16c#
=8
4d
4r
8.f#
16f#
=9
2f#
8.a#
16a#
=10
4a#
4b
4cc#
=11
2.ee
=12
4dd#
4r
8.ccc
16ccc
=13
4ccc
4r
8.dd#
16dd#
=14
4dd#
4ee
4ff#
=15
2.aa
=16
4gg#
4r
8.fff
16fff
=17
4fff
4r
8.eee
16eee
=18
4eee
4r
16g#
8.a
=19
16b
8.a
16dd
8.cc#
16ff#
8.ee
=20
2aa
4aa
=21
4aa
4aa
4aa
=22
4aa
4r
8.aa
16aa
=23
4aa
4r
32bb
16.aa
8r
=24
32bb
16.aa
4.r
8.aa
16aa
=25
2aa
4ddd[
=26
4ddd]
16ccc#
8.bb
16aa#
8.bb
=27
32aa
16.gg
8r
32ff#
16.ee
8r
32dd
16.cc#
8r
=28
32b
16.a
8r
32g
16.f#
8r
32e
16.d
8r
=29
2.c
=30
4B
32d#
16.e
8r
32f#
16.g
8r
=31
32a#
16.b
4.r
8.c#
16c#
=32
4d
4r
16ff#
16ee
16ff#
16gg
=33
4aa
4aa
4aa
=34
4aa
4aa
4aa[
=35
4aa]
4gg
4ff#
=36
4ee
4r
16ee
16dd#
16ee
16ff#
=37
4gg
4gg
4gg
=38
4gg
4gg
4gg[
=39
4gg]
4ff#
4ee
=40
4dd
4r
16dd
16cc#
16dd
16ee
=41
4ff#
4ff#
4ff#[
=42
4ff#]
4ee
4dd[
=43
4dd]
4cc#
4b
=44
4a
4r
16cc#
16b
16cc#
16dd
=45
4ee
4ee
4aa[
=46
4aa]
4gg#
4bb[
=47
4bb]
4aa
4ddd[
=48
4ddd]
4ccc#
4ccc[
=49
4ccc]
4bb
4bb-[
=50
4bb-]
4aa
4gg#[
=51
4gg#]
4aa
4ff#[
=52
4ff#]
4gg
4gg[
=53
4gg]
4gg
4gg[
=54
4gg]
4gg
4gg[
=55
4gg]
4gg
4gg
=56
2gg
16ff#
16ee
16ff#
16gg
=57
4aa
4aa
4aa
=58
4aa
4aa
4aa[
=59
4aa]
4gg
4ff#
=60
4ee
4r
16ee
16dd#
16ee
16ff#
=61
4gg
4gg
4gg
=62
4gg
4gg
4gg[
=63
4gg]
4ff#
4ee
=64
4dd
4r
16ff#
16ee
16ff#
16gg
=65
4aa
4aa
16bb
16aa#
16bb
16ccc#
=66
4ddd
4ddd
4r
=67
2.r
=68
2r
16gg
16ff#
16gg
16aa
=69
4bb
4bb
4bb[
=70
4bb]
4aa
4gg[
=71
4gg]
4ff#
4ee
=72
4dd
2r
=73
2r
16ff#
16ee
16ff#
16gg
=74
4aa
4aa
4r
=75
2r
16bb
16aa#
16bb
16ccc#
=76
4ddd
4ddd
4r
=77
2.r
=78
2r
16gg
16ff#
16gg
16aa
=79
4bb
4bb
4bb[
=80
4bb]
4aa
4gg[
=81
4gg]
4ff#
4gg[
=82
4gg]
4ff#
4gg[
=83
4gg]
4ff#
4ee[
=84
4ee]
4dd
4dd[
=85
4dd]
4cc#
4cc#
=86
4dd
2r
==
*-
